dist/svg/menu.svg

<!-- Generated by Trend Micro Style Portal -->
<svg version="1.1" xmlns="http://www.w3.org/2000/svg" width="16" height="16" viewBox="0 0 16 16">
  <title>menu</title>
  <path fill="rgb(34,34,34)" d="M14 3v2h-12v-2zM2 9h12v-2h-12zM2 13h12v-2h-12z"></path>
</svg>

<svg width="16" height="16" viewBox="0 0 16 16" fill="rgb(34, 34, 34)" xmlns="http://www.w3.org/2000/svg"><title>menu</title><path d="M14 3V5H2V3H14ZM2 9H14V7H2V9ZM2 13H14V11H2V13Z" fill="rgb(34, 34, 34)" fill-opacity="1.00"/></svg>
